Sources/FrostedUI/Resources/Icons.xcassets/closedCaptions20.imageset/closed-captions-20.svg

<svg width="20" height="20" viewBox="0 0 20 20" fill="none" xmlns="http://www.w3.org/2000/svg" data-fui-icon="true">
  <path
    d="M17.7778 3.88667C18.0833 3.88667 18.3333 4.13667 18.3333 4.44222V15.5533C18.3333 15.8589 18.0833 16.1089 17.7778 16.1089H2.22222C1.91667 16.1089 1.66667 15.8589 1.66667 15.5533V4.44222C1.66667 4.13667 1.91667 3.88667 2.22222 3.88667H17.7778ZM2.22222 2.22C0.996528 2.22 0 3.21653 0 4.44222V15.5533C0 16.779 0.996528 17.7756 2.22222 17.7756H17.7778C19.0035 17.7756 20 16.779 20 15.5533V4.44222C20 3.21653 19.0035 2.22 17.7778 2.22H2.22222ZM6.94444 8.33111C7.4375 8.33111 7.88194 8.54292 8.1875 8.88667C8.49306 9.23042 9.02083 9.25819 9.36458 8.95264C9.70833 8.64708 9.73611 8.11931 9.43056 7.77556C8.82292 7.095 7.93403 6.66444 6.94792 6.66444C5.10764 6.66444 3.61458 8.1575 3.61458 9.99778C3.61458 11.8381 5.10764 13.3311 6.94792 13.3311C7.93403 13.3311 8.82292 12.9006 9.43056 12.22C9.73611 11.8763 9.70833 11.3519 9.36458 11.0429C9.02083 10.7339 8.49653 10.7651 8.1875 11.1089C7.88194 11.4526 7.4375 11.6644 6.94444 11.6644C6.02431 11.6644 5.27778 10.9179 5.27778 9.99778C5.27778 9.07764 6.02431 8.33111 6.94444 8.33111ZM11.9444 9.99778C11.9444 9.07764 12.691 8.33111 13.6111 8.33111C14.1042 8.33111 14.5486 8.54292 14.8542 8.88667C15.1597 9.23042 15.6875 9.25819 16.0312 8.95264C16.375 8.64708 16.4028 8.11931 16.0972 7.77556C15.4896 7.095 14.6007 6.66444 13.6146 6.66444C11.7743 6.66444 10.2812 8.1575 10.2812 9.99778C10.2812 11.8381 11.7743 13.3311 13.6146 13.3311C14.6007 13.3311 15.4896 12.9006 16.0972 12.22C16.4028 11.8763 16.375 11.3519 16.0312 11.0429C15.6875 10.7339 15.1632 10.7651 14.8542 11.1089C14.5486 11.4526 14.1042 11.6644 13.6111 11.6644C12.691 11.6644 11.9444 10.9179 11.9444 9.99778Z"
    fill="currentColor"
  />
</svg>

<svg xmlns="http://www.w3.org/2000/svg" width="20" height="20" fill="none" data-fui-icon="true" viewBox="0 0 20 20"><path fill="currentColor" d="M17.778 3.887c.305 0 .555.25.555.555v11.111c0 .306-.25.556-.555.556H2.222a.557.557 0 0 1-.555-.556V4.443c0-.306.25-.556.555-.556zM2.222 2.22A2.224 2.224 0 0 0 0 4.442v11.111c0 1.226.997 2.223 2.222 2.223h15.556A2.224 2.224 0 0 0 20 15.553V4.443a2.224 2.224 0 0 0-2.222-2.223zm4.722 6.111c.494 0 .938.212 1.244.556A.834.834 0 0 0 9.43 7.776a3.334 3.334 0 1 0-2.483 5.556c.986 0 1.875-.431 2.483-1.112a.834.834 0 0 0-1.243-1.111A1.667 1.667 0 1 1 6.945 8.33m5 1.667a1.667 1.667 0 0 1 2.91-1.111.834.834 0 0 0 1.243-1.111 3.334 3.334 0 1 0-2.483 5.556c.987 0 1.876-.431 2.483-1.112a.834.834 0 0 0-1.243-1.111 1.667 1.667 0 0 1-2.91-1.111"/></svg>
